packages/components/bolt-icons/src/svgs/utility/add.svg

<?xml version="1.0" encoding="UTF-8"?>
<svg width="16px" height="17px" viewBox="0 0 16 17" version="1.1" xmlns="http://www.w3.org/2000/svg" xmlns:xlink="http://www.w3.org/1999/xlink">
    <!-- Generator: sketchtool 60.1 (101010) - https://sketch.com -->
    <title>3F6CA767-0BBC-4D91-B573-A8C2B62B914E</title>
    <desc>Created with sketchtool.</desc>
    <g id="Asset-Artboard-Page" stroke="none" stroke-width="1" fill="none" fill-rule="evenodd">
        <path d="M8.97708625,7.46138357 L8.97708625,1.56880336 C8.97708625,0.995810265 8.53982389,0.53125 7.9994997,0.53125 C7.46017611,0.53125 7.02191315,0.995810265 7.02191315,1.56880336 L7.02191315,7.46138357 L1.47658595,7.46138357 C0.936261757,7.46138357 0.5,7.92594384 0.5,8.5 C0.5,9.0729931 0.936261757,9.53861643 1.47658595,9.53861643 L7.02191315,9.53861643 L7.02191315,15.4311966 C7.02191315,16.0041897 7.46017611,16.46875 7.9994997,16.46875 C8.53982389,16.46875 8.97708625,16.0041897 8.97708625,15.4311966 L8.97708625,9.53861643 L14.523414,9.53861643 C15.0627376,9.53861643 15.5,9.0729931 15.5,8.5 C15.5,7.92594384 15.0627376,7.46138357 14.523414,7.46138357 L8.97708625,7.46138357 Z" id="path-1" fill="#1f2555"></path>
    </g>
</svg>

<?xml version="1.0" encoding="utf-8"?>
<!-- Generator: Adobe Illustrator 24.0.3, SVG Export Plug-In . SVG Version: 6.00 Build 0)  -->
<svg version="1.1" id="Layer_1" xmlns="http://www.w3.org/2000/svg" xmlns:xlink="http://www.w3.org/1999/xlink" x="0px" y="0px"
	 viewBox="0 0 16 17" enable-background="new 0 0 16 17" xml:space="preserve">
<path id="path-1" fill-rule="evenodd" clip-rule="evenodd" d="M9,7.5V1.6c0-0.6-0.4-1-1-1c-0.5,0-1,0.5-1,1v5.9H1.5
	c-0.5,0-1,0.5-1,1c0,0.6,0.4,1,1,1H7v5.9c0,0.6,0.4,1,1,1c0.5,0,1-0.5,1-1V9.5h5.5c0.5,0,1-0.5,1-1c0-0.6-0.4-1-1-1H9z"/>
</svg>
